Origami/32x32/apps/runescape.svg

<svg width="32" height="32" version="1.1" viewBox="0 0 32 32" xmlns="http://www.w3.org/2000/svg">
 <path d="M 16,3 A 14,14 0 0 0 2,17 14,14 0 0 0 16,31 14,14 0 0 0 30,17 14,14 0 0 0 16,3 Z" style="opacity:.2"/>
 <path d="M 16,2 A 14,14 0 0 0 2,16 14,14 0 0 0 16,30 14,14 0 0 0 30,16 14,14 0 0 0 16,2 Z" style="fill:#38738f"/>
 <path d="m12 7c0 0.4340848 0.420174 0.7953224 1 0.9335938v3.0664062h-0.449219v0.0059c-0.567365 0.0042-1.012333 0.01414-1.537109 0.134766-0.533826 0.122631-1.013672 0.225871-1.013672 0.892537l0.699219 0.332031s0.366053-0.275147 0.701172-0.332031c0.194419-0.033 0.3996 0.0091 0.599609 0.08399v4.382807l-1.5 1.5 1.5 1.5v5.794922l1.5 1.705078 1.5-1.705078v-13.167969c0.20703-0.07581 0.415054-0.125075 0.599609-0.09375 0.335119 0.05688 0.701172 0.332031 0.701172 0.332031l0.699219-0.332031c0-0.666666-0.479846-0.769865-1.013672-0.892578-0.664794-0.152817-1.127336-0.131125-1.986328-0.140625v-3.0664062c0.579826-0.1382714 1-0.499509 1-0.9335938zm5.660156 4c0.200319 0.303301 0.339844 0.674471 0.339844 1.033203a1.0001 1.0001 0 0 1 -0.306641 0.720703c0.821693 0.572436 1.306641 1.607937 1.306641 2.628906 0 1.892176-1.054841 2.058556-3 2.617188 1.167345 2.853612 3.493869 5.378553 5.794922 6.685547 1.963172 1.18683 3.762165 2.021911 6.205078 2.314453-2.697845-3.293166-6.899301-4.742803-9-8 1.403877-0.736202 3-1.371915 3-3.804688 0-1.973542-1.800196-4.195312-3.138672-4.195312z" style="opacity:.2"/>
 <path d="m12 11h3v13.295455l-1.5 1.704545-1.5-1.704545z" style="fill:#ffffff"/>
 <path d="m12.550781 10v0.0059c-0.567365 0.0042-1.012333 0.01414-1.537109 0.134766-0.533826 0.122672-1.013672 0.22666-1.013672 0.893326l0.699219 0.332032s0.366053-0.275148 0.701172-0.332032c0.383497-0.06509 0.812496 0.152555 1.15039 0.365235v0.300781h1.449219s0.959589-0.77465 1.599609-0.666016c0.335119 0.05688 0.701172 0.332032 0.701172 0.332032l0.699219-0.332032c0-0.666666-0.479846-0.770654-1.013672-0.893367-0.664794-0.152817-1.127336-0.131125-1.986328-0.140625h-1z" style="fill:#ffffff"/>
 <rect transform="rotate(90)" x="6.6" y="-14" width="4" height="1" style="fill:#ffffff"/>
 <path d="m15 6c0 0.5522845-0.671574 1-1.5 1s-1.5-0.4477155-1.5-1z" style="fill:#ffffff"/>
 <rect transform="rotate(45)" x="19.45" y="2.48" width="2.121" height="2.121" style="fill:#ffffff"/>
 <path d="m17.660156 10c0.200319 0.303301 0.339844 0.674471 0.339844 1.033203a1.0001 1.0001 0 0 1 -0.306641 0.720703c0.821693 0.572436 1.306641 1.607937 1.306641 2.628906 0 1.892176-1.054841 2.058556-3 2.617188 1.167345 2.853612 3.493869 5.378553 5.794922 6.685547 1.963172 1.18683 3.762165 2.021911 6.205078 2.314453-2.697845-3.293166-6.899301-4.742803-9-8 1.403877-0.736202 3-1.371915 3-3.804688 0-1.973542-1.800196-4.195312-3.138672-4.195312h-1.201172z" style="fill:#ffffff"/>
 <path d="M 16 2 A 14 14 0 0 0 2 16 A 14 14 0 0 0 2.0214844 16.414062 A 14 14 0 0 1 16 3 A 14 14 0 0 1 29.978516 16.585938 A 14 14 0 0 0 30 16 A 14 14 0 0 0 16 2 z" style="fill:#ffffff;opacity:.1"/>
</svg>

<svg xmlns="http://www.w3.org/2000/svg" width="32" height="32" version="1.1" viewBox="0 0 32 32">
 <path style="opacity:0.2" d="M 16,3 A 14,14 0 0 0 2,17 14,14 0 0 0 16,31 14,14 0 0 0 30,17 14,14 0 0 0 16,3 Z"/>
 <path style="fill:#38738f" d="M 16,2 A 14,14 0 0 0 2,16 14,14 0 0 0 16,30 14,14 0 0 0 30,16 14,14 0 0 0 16,2 Z"/>
 <path style="opacity:0.2" d="m 12,7 c 0,0.4340848 0.420174,0.7953224 1,0.9335938 V 11 h -0.449219 v 0.0059 c -0.567365,0.0042 -1.012333,0.01414 -1.537109,0.134766 C 10.479846,11.263297 10,11.366537 10,12.033203 l 0.699219,0.332031 c 0,0 0.366053,-0.275147 0.701172,-0.332031 0.194419,-0.033 0.3996,0.0091 0.599609,0.08399 V 16.5 L 10.5,18 12,19.5 v 5.794922 L 13.5,27 15,25.294922 V 12.126953 c 0.20703,-0.07581 0.415054,-0.125075 0.599609,-0.09375 0.335119,0.05688 0.701172,0.332031 0.701172,0.332031 L 17,12.033203 C 17,11.366537 16.520154,11.263338 15.986328,11.140625 15.321534,10.987808 14.858992,11.0095 14,11 V 7.9335938 C 14.579826,7.7953224 15,7.4340848 15,7 Z m 5.660156,4 C 17.860475,11.303301 18,11.674471 18,12.033203 a 1.0001,1.0001 0 0 1 -0.306641,0.720703 C 18.515052,13.326342 19,14.361843 19,15.382812 19,17.274988 17.945159,17.441368 16,18 c 1.167345,2.853612 3.493869,5.378553 5.794922,6.685547 C 23.758094,25.872377 25.557087,26.707458 28,27 25.302155,23.706834 21.100699,22.257197 19,19 20.403877,18.263798 22,17.628085 22,15.195312 22,13.22177 20.199804,11 18.861328,11 Z"/>
 <path style="fill:#ffffff" d="m 12,11 h 3 V 24.295455 L 13.5,26 12,24.295455 Z"/>
 <path style="fill:#ffffff" d="m 12.550781,10 v 0.0059 c -0.567365,0.0042 -1.012333,0.01414 -1.537109,0.134766 C 10.479846,10.263338 10,10.367326 10,11.033992 l 0.699219,0.332032 c 0,0 0.366053,-0.275148 0.701172,-0.332032 0.383497,-0.06509 0.812496,0.152555 1.15039,0.365235 v 0.300781 H 13 14 c 0,0 0.959589,-0.77465 1.599609,-0.666016 0.335119,0.05688 0.701172,0.332032 0.701172,0.332032 L 17,11.033992 C 17,10.367326 16.520154,10.263338 15.986328,10.140625 15.321534,9.987808 14.858992,10.0095 14,10 h -1 z"/>
 <rect style="fill:#ffffff" width="4" height="1" x="6.6" y="-14" transform="rotate(90)"/>
 <path style="fill:#ffffff" d="M 15,6 C 15,6.5522845 14.328426,7 13.5,7 12.671574,7 12,6.5522845 12,6 Z"/>
 <rect style="fill:#ffffff" width="2.121" height="2.121" x="19.45" y="2.48" transform="rotate(45)"/>
 <path style="fill:#ffffff" d="M 17.660156 10 C 17.860475 10.303301 18 10.674471 18 11.033203 A 1.0001 1.0001 0 0 1 17.693359 11.753906 C 18.515052 12.326342 19 13.361843 19 14.382812 C 19 16.274988 17.945159 16.441368 16 17 C 17.167345 19.853612 19.493869 22.378553 21.794922 23.685547 C 23.758094 24.872377 25.557087 25.707458 28 26 C 25.302155 22.706834 21.100699 21.257197 19 18 C 20.403877 17.263798 22 16.628085 22 14.195312 C 22 12.22177 20.199804 10 18.861328 10 L 17.660156 10 z"/>
 <path style="fill:#ffffff;opacity:0.1" d="M 16 2 A 14 14 0 0 0 2 16 A 14 14 0 0 0 2.0214844 16.414062 A 14 14 0 0 1 16 3 A 14 14 0 0 1 29.978516 16.585938 A 14 14 0 0 0 30 16 A 14 14 0 0 0 16 2 z"/>
</svg>
